world_stage/static/flags/rect/kir.svg

<svg height="300" viewBox="0 0 450 300" width="450" xmlns="http://www.w3.org/2000/svg" xmlns:xlink="http://www.w3.org/1999/xlink"><clipPath id="a"><path d="m0 0h337.5v225h-337.5z" transform="translate(-205.79301 -119.5308)"/></clipPath><clipPath id="b"><path d="m0 0h337.5v225h-337.5z" transform="translate(-137.52 -113.00001)"/></clipPath><clipPath id="c"><path d="m0 0h337.5v225h-337.5z" transform="translate(-199.7695 -113.00001)"/></clipPath><clipPath id="d"><path d="m0 0h337.5v225h-337.5z"/></clipPath><clipPath id="e"><path d="m0 0h337.5v225h-337.5z" transform="translate(56.250001 -32.644501)"/></clipPath><clipPath id="f"><path d="m0 0h337.5v225h-337.5z" transform="translate(-178.9492 -188.1021)"/></clipPath><clipPath id="g"><path d="m0 0h337.5v225h-337.5z" transform="translate(-145.82421 -192.02001)"/></clipPath><clipPath id="h"><path d="m0 0h337.5v225h-337.5z" transform="translate(-165.12111 -194.84811)"/></clipPath><clipPath id="i"><path d="m0 0h337.5v225h-337.5z" transform="translate(-159.9492 -190.08201)"/></clipPath><clipPath id="j"><path d="m0 0h337.5v225h-337.5z" transform="translate(-162.98001 -193.9219)"/></clipPath><clipPath id="k"><path d="m0 0h337.5v225h-337.5z" transform="translate(-158.65191 -195.1719)"/></clipPath><clipPath id="l"><path d="m0 0h337.5v225h-337.5z" transform="translate(-134.7232 -194.125)"/></clipPath><clipPath id="m"><path d="m0 0h337.5v225h-337.5z" transform="translate(-148.7769 -195.1719)"/></clipPath><clipPath id="n"><path d="m0 0h337.5v225h-337.5z" transform="translate(56.250001 -96.929702)"/></clipPath><clipPath id="o"><path d="m0 0h337.5v225h-337.5z" transform="translate(56.250001 -64.785204)"/></clipPath><path d="m0 .5h337.5v224.5h-337.5z" fill="#ce1126" transform="matrix(1.3333333 0 0 -1.3333333 0 300)"/><g fill="#fcd116"><path clip-path="url(#a)" d="m0 0c6.57-1.758 16.508-1.32 20.973-6.531-6.571 1.762-14.664-8.859-20.973-6.531 5.57-3.902-81.031 0-74.086 0-6.57 1.758-16.508 1.32-20.973 6.531 6.571-1.761 14.664 8.859 20.973 6.531-5.57 3.903-15.234 6.922-17.473 13.313 5.571-3.903 16.903 3.336 21.942-1.035-3.903 5.57-12.055 11.683-11.867 18.484 3.898-5.57 17.027-2.59 20.261-8.481-1.758 6.571-7.058 15.04-4.828 21.43 1.762-6.566 14.981-8.199 16.145-14.894.59 6.773-1.801 16.578 2.789 21.785-.594-6.774 11.347-12.821 10.074-19.52 2.875 6.164 4.461 16.121 10.074 19.52-2.875-6.16 6.5-15.899 2.789-21.785 4.809 4.808 9.449 13.714 16.145 14.894-4.809-4.808.32-17.058-4.828-21.43 6.16 2.876 13.433 9.661 20.261 8.481-6.164-2.875-5.55-16.16-11.867-18.484 6.774.589 15.879 4.433 21.942 1.035-6.774-.594-10.528-13.313-17.473-13.313" fill-rule="evenodd" stroke="#bd9c08" stroke-width="1.125" transform="matrix(1.3333333 0 0 -1.3333333 274.39067 140.6256)"/><path clip-path="url(#b)" d="m0 0-23.692 9.684 25.574.996-18.949 17.203 24.371-7.809-11.922 22.645 20.231-15.676-3.457 25.359 13.648-21.648 5.426 25.012 5.422-25.012 13.648 21.648-3.457-25.359 20.231 15.676-11.922-22.645 24.371 7.809-18.949-17.203 25.574-.996-23.691-9.684 23.691-9.684h-109.84z" fill-rule="evenodd" stroke="#bd9c08" stroke-linejoin="round" stroke-width="1.125" transform="matrix(1.3333333 0 0 -1.3333333 183.36 149.33333)"/><path clip-path="url(#c)" d="m0 0c0-17.129-13.891-31.02-31.02-31.02-17.132 0-31.02 13.891-31.02 31.02 0 17.133 13.888 31.02 31.02 31.02 17.129 0 31.02-13.887 31.02-31.02" stroke="#bd9c08" stroke-linecap="round" stroke-width="1.35" transform="matrix(1.3333333 0 0 -1.3333333 266.35933 149.33333)"/></g><path clip-path="url(#d)" d="m-56.25 101.75h450v-101.25h-450z" fill="#003f87" transform="matrix(1.3333333 0 0 -1.3333333 0 300)"/><g fill-rule="evenodd"><path clip-path="url(#e)" d="m0 0c15 0 30-9.645 45-9.645s30 9.645 45 9.645 30-9.645 45-9.645 30 9.645 45 9.645 30-9.645 45-9.645 30 9.645 45 9.645 30-9.645 45-9.645 30 9.645 45 9.645 30-9.645 45-9.645 30 9.645 45 9.645v16.07c-15 0-30-9.644-45-9.644s-30 9.644-45 9.644-30-9.644-45-9.644-30 9.644-45 9.644-30-9.644-45-9.644-30 9.644-45 9.644-30-9.644-45-9.644-30 9.644-45 9.644-30-9.644-45-9.644-30 9.644-45 9.644z" fill="#fff" transform="matrix(1.3333333 0 0 -1.3333333 -75 256.474)"/><g fill="#fcd116"><path clip-path="url(#f)" d="m0 0 16.633-.11c.109.703-1.426 2.106-2.731 2.309-4.211.664-7.371-.699-12.48-.754z" stroke="#bd9c08" stroke-width=".9" transform="matrix(1.3333333 0 0 -1.3333333 238.59893 49.1972)"/><path clip-path="url(#g)" d="m0 0c3.906-4.938 11.477-8.368 18.711-8.411 9.75-.062 20.562 7.829 33.641 10.246l-42.688.879c-5.523 3.782-9.715 3.305-12.574.957l-8.16-.246c-1.156-.629.953-3.257 2.664-3.355z" stroke="#bd9c08" stroke-width=".9" transform="matrix(1.3333333 0 0 -1.3333333 194.43227 43.973333)"/><path clip-path="url(#h)" d="m0 0c-1.555 7.14-7.281 10.214-14.168 11.129-7.957 1.054-26.269 2.136-38.43 5.628 5.262-5.175 16.282-7.757 23.938-8.929 8.105-1.235 16-3.039 22.254-7.762z" stroke="#bd9c08" stroke-width=".9" transform="matrix(1.3333333 0 0 -1.3333333 220.16147 40.202533)"/><path clip-path="url(#i)" d="m0 0c2.547-3.262 6.492-3.078 10.734-.23 4.231 2.839 8.825 10.836 11.047 10.968 15.52.903 34.293 7.45 43.246 12.512-11.351-1.609-22.605-3.434-34.058-3.477-19.535-.078-21.848-8.976-29.809-15.214" transform="matrix(1.3333333 0 0 -1.3333333 213.2656 46.557333)"/></g></g><path clip-path="url(#j)" d="m0 0c4.165 2.652 7.551 6.113 11.45 9.004 6.453 4.789 13.91 4.929 21.918 5.027 7.093.086 19.531 3.051 26.281 4.633m-62.68-22.504c2.547-3.262 6.492-3.078 10.735-.23 4.23 2.839 8.824 10.836 11.046 10.968 15.52.903 34.293 7.45 43.247 12.512-11.352-1.609-22.606-3.434-34.059-3.477-19.535-.078-21.848-8.976-29.809-15.214" fill="none" stroke="#bd9c08" stroke-linecap="round" stroke-width=".9" transform="matrix(1.3333333 0 0 -1.3333333 217.30667 41.437467)"/><path clip-path="url(#k)" d="m0 0c-1.23 6.383-7.203 8.301-14.754 9.445-8.21 1.25-16.586 1.942-24.777 4.207-2.031.563-3.926 1.551-5.887 2.328" fill="none" stroke="#bd9c08" stroke-width=".9" transform="matrix(1.3333333 0 0 -1.3333333 211.53587 39.7708)"/><path clip-path="url(#l)" d="m0 0h9.722m16.821-8.363c7.707-.563 13.433 1.754 20.007 5.031" fill="none" stroke="#bd9c08" stroke-linecap="round" stroke-width=".9" transform="matrix(1.3333333 0 0 -1.3333333 179.63093 41.166667)"/><path clip-path="url(#m)" d="m0 0c0-.672-.543-1.215-1.215-1.215-.671 0-1.214.543-1.214 1.215s.543 1.215 1.214 1.215c.672 0 1.215-.543 1.215-1.215" fill="#bd9c08" transform="matrix(1.3333333 0 0 -1.3333333 198.3692 39.7708)"/><path clip-path="url(#n)" d="m0 0c15 0 30-9.645 45-9.645s30 9.645 45 9.645 30-9.645 45-9.645 30 9.645 45 9.645 30-9.645 45-9.645 30 9.645 45 9.645 30-9.645 45-9.645 30 9.645 45 9.645 30-9.645 45-9.645 30 9.645 45 9.645v16.07c-15 0-30-9.644-45-9.644s-30 9.644-45 9.644-30-9.644-45-9.644-30 9.644-45 9.644-30-9.644-45-9.644-30 9.644-45 9.644-30-9.644-45-9.644-30 9.644-45 9.644-30-9.644-45-9.644-30 9.644-45 9.644z" fill="#fff" fill-rule="evenodd" transform="matrix(1.3333333 0 0 -1.3333333 -75 170.7604)"/><path clip-path="url(#o)" d="m0 0c15 0 30-9.641 45-9.641s30 9.641 45 9.641 30-9.641 45-9.641 30 9.641 45 9.641 30-9.641 45-9.641 30 9.641 45 9.641 30-9.641 45-9.641 30 9.641 45 9.641 30-9.641 45-9.641 30 9.641 45 9.641v16.07c-15 0-30-9.64-45-9.64s-30 9.64-45 9.64-30-9.64-45-9.64-30 9.64-45 9.64-30-9.64-45-9.64-30 9.64-45 9.64-30-9.64-45-9.64-30 9.64-45 9.64-30-9.64-45-9.64-30 9.64-45 9.64z" fill="#fff" fill-rule="evenodd" transform="matrix(1.3333333 0 0 -1.3333333 -75 213.61973)"/></svg>

<?xml version="1.0" encoding="UTF-8" standalone="no"?>
<!-- Created with Inkscape (http://www.inkscape.org/) -->

<svg
   version="1.1"
   id="svg1"
   width="450"
   height="300"
   viewBox="0 0 450 300"
   sodipodi:docname="ki.ai"
   xmlns:inkscape="http://www.inkscape.org/namespaces/inkscape"
   xmlns:sodipodi="http://sodipodi.sourceforge.net/DTD/sodipodi-0.dtd"
   xmlns="http://www.w3.org/2000/svg"
   xmlns:svg="http://www.w3.org/2000/svg">
  <defs
     id="defs1">
    <clipPath
       clipPathUnits="userSpaceOnUse"
       id="clipPath3">
      <path
         d="M 0,0 H 337.5 V 225 H 0 Z"
         transform="translate(-205.79301,-119.5308)"
         id="path3" />
    </clipPath>
    <clipPath
       clipPathUnits="userSpaceOnUse"
       id="clipPath5">
      <path
         d="M 0,0 H 337.5 V 225 H 0 Z"
         transform="translate(-137.52,-113.00001)"
         id="path5" />
    </clipPath>
    <clipPath
       clipPathUnits="userSpaceOnUse"
       id="clipPath7">
      <path
         d="M 0,0 H 337.5 V 225 H 0 Z"
         transform="translate(-199.7695,-113.00001)"
         id="path7" />
    </clipPath>
    <clipPath
       clipPathUnits="userSpaceOnUse"
       id="clipPath9">
      <path
         d="M 0,0 H 337.5 V 225 H 0 Z"
         id="path9" />
    </clipPath>
    <clipPath
       clipPathUnits="userSpaceOnUse"
       id="clipPath11">
      <path
         d="M 0,0 H 337.5 V 225 H 0 Z"
         transform="translate(56.250001,-32.644501)"
         id="path11" />
    </clipPath>
    <clipPath
       clipPathUnits="userSpaceOnUse"
       id="clipPath13">
      <path
         d="M 0,0 H 337.5 V 225 H 0 Z"
         transform="translate(-178.9492,-188.1021)"
         id="path13" />
    </clipPath>
    <clipPath
       clipPathUnits="userSpaceOnUse"
       id="clipPath15">
      <path
         d="M 0,0 H 337.5 V 225 H 0 Z"
         transform="translate(-145.82421,-192.02001)"
         id="path15" />
    </clipPath>
    <clipPath
       clipPathUnits="userSpaceOnUse"
       id="clipPath17">
      <path
         d="M 0,0 H 337.5 V 225 H 0 Z"
         transform="translate(-165.12111,-194.84811)"
         id="path17" />
    </clipPath>
    <clipPath
       clipPathUnits="userSpaceOnUse"
       id="clipPath19">
      <path
         d="M 0,0 H 337.5 V 225 H 0 Z"
         transform="translate(-159.9492,-190.08201)"
         id="path19" />
    </clipPath>
    <clipPath
       clipPathUnits="userSpaceOnUse"
       id="clipPath21">
      <path
         d="M 0,0 H 337.5 V 225 H 0 Z"
         transform="translate(-162.98001,-193.9219)"
         id="path21" />
    </clipPath>
    <clipPath
       clipPathUnits="userSpaceOnUse"
       id="clipPath23">
      <path
         d="M 0,0 H 337.5 V 225 H 0 Z"
         transform="translate(-158.65191,-195.1719)"
         id="path23" />
    </clipPath>
    <clipPath
       clipPathUnits="userSpaceOnUse"
       id="clipPath25">
      <path
         d="M 0,0 H 337.5 V 225 H 0 Z"
         transform="translate(-134.7232,-194.125)"
         id="path25" />
    </clipPath>
    <clipPath
       clipPathUnits="userSpaceOnUse"
       id="clipPath27">
      <path
         d="M 0,0 H 337.5 V 225 H 0 Z"
         transform="translate(-148.7769,-195.1719)"
         id="path27" />
    </clipPath>
    <clipPath
       clipPathUnits="userSpaceOnUse"
       id="clipPath29">
      <path
         d="M 0,0 H 337.5 V 225 H 0 Z"
         transform="translate(56.250001,-96.929702)"
         id="path29" />
    </clipPath>
    <clipPath
       clipPathUnits="userSpaceOnUse"
       id="clipPath31">
      <path
         d="M 0,0 H 337.5 V 225 H 0 Z"
         transform="translate(56.250001,-64.785204)"
         id="path31" />
    </clipPath>
  </defs>
  <sodipodi:namedview
     id="namedview1"
     pagecolor="#ffffff"
     bordercolor="#000000"
     borderopacity="0.25"
     inkscape:showpageshadow="2"
     inkscape:pageopacity="0.0"
     inkscape:pagecheckerboard="0"
     inkscape:deskcolor="#d1d1d1">
    <inkscape:page
       x="0"
       y="0"
       inkscape:label="1"
       id="page1"
       width="450"
       height="300"
       margin="0"
       bleed="0" />
  </sodipodi:namedview>
  <g
     id="layer-MC0"
     inkscape:groupmode="layer"
     inkscape:label="Layer 1">
    <path
       id="path1"
       d="M 0,0.5 H 337.5 V 225 H 0 Z"
       style="fill:#ce1126;fill-opacity:1;fill-rule:nonzero;stroke:none"
       transform="matrix(1.3333333,0,0,-1.3333333,0,300)" />
    <path
       id="path2"
       d="M 0,0 C 6.57,-1.758 16.508,-1.32 20.973,-6.531 14.402,-4.769 6.309,-15.39 0,-13.062 c 5.57,-3.902 -81.031,0 -74.086,0 -6.57,1.758 -16.508,1.32 -20.973,6.531 6.571,-1.761 14.664,8.859 20.973,6.531 -5.57,3.903 -15.234,6.922 -17.473,13.313 5.571,-3.903 16.903,3.336 21.942,-1.035 -3.903,5.57 -12.055,11.683 -11.867,18.484 3.898,-5.57 17.027,-2.59 20.261,-8.481 -1.758,6.571 -7.058,15.04 -4.828,21.43 1.762,-6.566 14.981,-8.199 16.145,-14.894 0.59,6.773 -1.801,16.578 2.789,21.785 -0.594,-6.774 11.347,-12.821 10.074,-19.52 2.875,6.164 4.461,16.121 10.074,19.52 -2.875,-6.16 6.5,-15.899 2.789,-21.785 4.809,4.808 9.449,13.714 16.145,14.894 -4.809,-4.808 0.32,-17.058 -4.828,-21.43 6.16,2.876 13.433,9.661 20.261,8.481 C 1.234,27.887 1.848,14.602 -4.469,12.278 2.305,12.867 11.41,16.711 17.473,13.313 10.699,12.719 6.945,0 0,0"
       style="fill:#fcd116;fill-opacity:1;fill-rule:evenodd;stroke:#bd9c08;stroke-width:1.125;stroke-linecap:butt;stroke-linejoin:miter;stroke-miterlimit:4;stroke-dasharray:none;stroke-opacity:1"
       transform="matrix(1.3333333,0,0,-1.3333333,274.39067,140.6256)"
       clip-path="url(#clipPath3)" />
    <path
       id="path4"
       d="M 0,0 -23.692,9.684 1.882,10.68 -17.067,27.883 7.304,20.074 -4.618,42.719 15.613,27.043 12.156,52.402 25.804,30.754 31.23,55.766 36.652,30.754 50.3,52.402 46.843,27.043 67.074,42.719 55.152,20.074 79.523,27.883 60.574,10.68 86.148,9.684 62.457,0 86.148,-9.684 h -109.84 z"
       style="fill:#fcd116;fill-opacity:1;fill-rule:evenodd;stroke:#bd9c08;stroke-width:1.125;stroke-linecap:butt;stroke-linejoin:round;stroke-miterlimit:4;stroke-dasharray:none;stroke-opacity:1"
       transform="matrix(1.3333333,0,0,-1.3333333,183.36,149.33333)"
       clip-path="url(#clipPath5)" />
    <path
       id="path6"
       d="m 0,0 c 0,-17.129 -13.891,-31.02 -31.02,-31.02 -17.132,0 -31.02,13.891 -31.02,31.02 0,17.133 13.888,31.02 31.02,31.02 C -13.891,31.02 0,17.133 0,0"
       style="fill:#fcd116;fill-opacity:1;fill-rule:nonzero;stroke:#bd9c08;stroke-width:1.35;stroke-linecap:round;stroke-linejoin:miter;stroke-miterlimit:4;stroke-dasharray:none;stroke-opacity:1"
       transform="matrix(1.3333333,0,0,-1.3333333,266.35933,149.33333)"
       clip-path="url(#clipPath7)" />
    <path
       id="path8"
       d="m -56.25,101.75 h 450 V 0.5 h -450 z"
       style="fill:#003f87;fill-opacity:1;fill-rule:nonzero;stroke:none"
       transform="matrix(1.3333333,0,0,-1.3333333,0,300)"
       clip-path="url(#clipPath9)" />
    <path
       id="path10"
       d="M 0,0 C 15,0 30,-9.645 45,-9.645 60,-9.645 75,0 90,0 c 15,0 30,-9.645 45,-9.645 15,0 30,9.645 45,9.645 15,0 30,-9.645 45,-9.645 15,0 30,9.645 45,9.645 15,0 30,-9.645 45,-9.645 15,0 30,9.645 45,9.645 15,0 30,-9.645 45,-9.645 15,0 30,9.645 45,9.645 v 16.07 c -15,0 -30,-9.644 -45,-9.644 -15,0 -30,9.644 -45,9.644 -15,0 -30,-9.644 -45,-9.644 -15,0 -30,9.644 -45,9.644 -15,0 -30,-9.644 -45,-9.644 -15,0 -30,9.644 -45,9.644 -15,0 -30,-9.644 -45,-9.644 -15,0 -30,9.644 -45,9.644 -15,0 -30,-9.644 -45,-9.644 -15,0 -30,9.644 -45,9.644 z"
       style="fill:#ffffff;fill-opacity:1;fill-rule:evenodd;stroke:none"
       transform="matrix(1.3333333,0,0,-1.3333333,-75,256.474)"
       clip-path="url(#clipPath11)" />
    <path
       id="path12"
       d="M 0,0 16.633,-0.11 C 16.742,0.593 15.207,1.996 13.902,2.199 9.691,2.863 6.531,1.5 1.422,1.445 Z"
       style="fill:#fcd116;fill-opacity:1;fill-rule:evenodd;stroke:#bd9c08;stroke-width:0.9;stroke-linecap:butt;stroke-linejoin:miter;stroke-miterlimit:4;stroke-dasharray:none;stroke-opacity:1"
       transform="matrix(1.3333333,0,0,-1.3333333,238.59893,49.1972)"
       clip-path="url(#clipPath13)" />
    <path
       id="path14"
       d="m 0,0 c 3.906,-4.938 11.477,-8.368 18.711,-8.411 9.75,-0.062 20.562,7.829 33.641,10.246 L 9.664,2.714 C 4.141,6.496 -0.051,6.019 -2.91,3.671 l -8.16,-0.246 c -1.156,-0.629 0.953,-3.257 2.664,-3.355 z"
       style="fill:#fcd116;fill-opacity:1;fill-rule:evenodd;stroke:#bd9c08;stroke-width:0.9;stroke-linecap:butt;stroke-linejoin:miter;stroke-miterlimit:4;stroke-dasharray:none;stroke-opacity:1"
       transform="matrix(1.3333333,0,0,-1.3333333,194.43227,43.973333)"
       clip-path="url(#clipPath15)" />
    <path
       id="path16"
       d="m 0,0 c -1.555,7.14 -7.281,10.214 -14.168,11.129 -7.957,1.054 -26.269,2.136 -38.43,5.628 5.262,-5.175 16.282,-7.757 23.938,-8.929 8.105,-1.235 16,-3.039 22.254,-7.762 z"
       style="fill:#fcd116;fill-opacity:1;fill-rule:evenodd;stroke:#bd9c08;stroke-width:0.9;stroke-linecap:butt;stroke-linejoin:miter;stroke-miterlimit:4;stroke-dasharray:none;stroke-opacity:1"
       transform="matrix(1.3333333,0,0,-1.3333333,220.16147,40.202533)"
       clip-path="url(#clipPath17)" />
    <path
       id="path18"
       d="m 0,0 c 2.547,-3.262 6.492,-3.078 10.734,-0.23 4.231,2.839 8.825,10.836 11.047,10.968 15.52,0.903 34.293,7.45 43.246,12.512 C 53.676,21.641 42.422,19.816 30.969,19.773 11.434,19.695 9.121,10.797 1.16,4.559"
       style="fill:#fcd116;fill-opacity:1;fill-rule:evenodd;stroke:none"
       transform="matrix(1.3333333,0,0,-1.3333333,213.2656,46.557333)"
       clip-path="url(#clipPath19)" />
    <path
       id="path20"
       d="m 0,0 c 4.165,2.652 7.551,6.113 11.45,9.004 6.453,4.789 13.91,4.929 21.918,5.027 7.093,0.086 19.531,3.051 26.281,4.633 M -3.031,-3.84 C -0.484,-7.102 3.461,-6.918 7.704,-4.07 11.934,-1.231 16.528,6.766 18.75,6.898 34.27,7.801 53.043,14.348 61.997,19.41 50.645,17.801 39.391,15.976 27.938,15.933 8.403,15.855 6.09,6.957 -1.871,0.719"
       style="fill:none;stroke:#bd9c08;stroke-width:0.9;stroke-linecap:round;stroke-linejoin:miter;stroke-miterlimit:4;stroke-dasharray:none;stroke-opacity:1"
       transform="matrix(1.3333333,0,0,-1.3333333,217.30667,41.437467)"
       clip-path="url(#clipPath21)" />
    <path
       id="path22"
       d="m 0,0 c -1.23,6.383 -7.203,8.301 -14.754,9.445 -8.21,1.25 -16.586,1.942 -24.777,4.207 -2.031,0.563 -3.926,1.551 -5.887,2.328"
       style="fill:none;stroke:#bd9c08;stroke-width:0.9;stroke-linecap:butt;stroke-linejoin:miter;stroke-miterlimit:4;stroke-dasharray:none;stroke-opacity:1"
       transform="matrix(1.3333333,0,0,-1.3333333,211.53587,39.7708)"
       clip-path="url(#clipPath23)" />
    <path
       id="path24"
       d="m 0,0 h 9.722 m 16.821,-8.363 c 7.707,-0.563 13.433,1.754 20.007,5.031"
       style="fill:none;stroke:#bd9c08;stroke-width:0.9;stroke-linecap:round;stroke-linejoin:miter;stroke-miterlimit:4;stroke-dasharray:none;stroke-opacity:1"
       transform="matrix(1.3333333,0,0,-1.3333333,179.63093,41.166667)"
       clip-path="url(#clipPath25)" />
    <path
       id="path26"
       d="m 0,0 c 0,-0.672 -0.543,-1.215 -1.215,-1.215 -0.671,0 -1.214,0.543 -1.214,1.215 0,0.672 0.543,1.215 1.214,1.215 C -0.543,1.215 0,0.672 0,0"
       style="fill:#bd9c08;fill-opacity:1;fill-rule:nonzero;stroke:none"
       transform="matrix(1.3333333,0,0,-1.3333333,198.3692,39.7708)"
       clip-path="url(#clipPath27)" />
    <path
       id="path28"
       d="M 0,0 C 15,0 30,-9.645 45,-9.645 60,-9.645 75,0 90,0 c 15,0 30,-9.645 45,-9.645 15,0 30,9.645 45,9.645 15,0 30,-9.645 45,-9.645 15,0 30,9.645 45,9.645 15,0 30,-9.645 45,-9.645 15,0 30,9.645 45,9.645 15,0 30,-9.645 45,-9.645 15,0 30,9.645 45,9.645 v 16.07 c -15,0 -30,-9.644 -45,-9.644 -15,0 -30,9.644 -45,9.644 -15,0 -30,-9.644 -45,-9.644 -15,0 -30,9.644 -45,9.644 -15,0 -30,-9.644 -45,-9.644 -15,0 -30,9.644 -45,9.644 -15,0 -30,-9.644 -45,-9.644 -15,0 -30,9.644 -45,9.644 -15,0 -30,-9.644 -45,-9.644 -15,0 -30,9.644 -45,9.644 z"
       style="fill:#ffffff;fill-opacity:1;fill-rule:evenodd;stroke:none"
       transform="matrix(1.3333333,0,0,-1.3333333,-75,170.7604)"
       clip-path="url(#clipPath29)" />
    <path
       id="path30"
       d="M 0,0 C 15,0 30,-9.641 45,-9.641 60,-9.641 75,0 90,0 c 15,0 30,-9.641 45,-9.641 15,0 30,9.641 45,9.641 15,0 30,-9.641 45,-9.641 15,0 30,9.641 45,9.641 15,0 30,-9.641 45,-9.641 15,0 30,9.641 45,9.641 15,0 30,-9.641 45,-9.641 15,0 30,9.641 45,9.641 v 16.07 c -15,0 -30,-9.64 -45,-9.64 -15,0 -30,9.64 -45,9.64 -15,0 -30,-9.64 -45,-9.64 -15,0 -30,9.64 -45,9.64 -15,0 -30,-9.64 -45,-9.64 -15,0 -30,9.64 -45,9.64 -15,0 -30,-9.64 -45,-9.64 -15,0 -30,9.64 -45,9.64 -15,0 -30,-9.64 -45,-9.64 -15,0 -30,9.64 -45,9.64 z"
       style="fill:#ffffff;fill-opacity:1;fill-rule:evenodd;stroke:none"
       transform="matrix(1.3333333,0,0,-1.3333333,-75,213.61973)"
       clip-path="url(#clipPath31)" />
  </g>
</svg>
